assets/images/logos/arcade.svg

<svg enable-background="new 0 0 566.929 458.929" height="155" viewBox="0 0 504.99999 155" width="505" xmlns="http://www.w3.org/2000/svg"><g style="stroke-width:7;stroke-linecap:round;stroke-linejoin:round;enable-background:accumulate;fill:#fff;stroke:none"><path d="m95.598526 131.08104h-27.37774v-8.59728q-3.92303 4.92466-7.929529 7.17831-7.011372 3.92303-15.942525 3.92303-14.440089 0-25.708366-9.93278-13.4384643-11.85255-13.4384643-31.384236 0-19.865555 13.7723393-31.718113 10.934402-9.431966 25.124084-9.431966 8.263404 0 15.525182 3.505687 4.173436 2.003249 8.597279 6.594029v-7.595654h27.37774zm-26.543053-38.729487q0-7.345247-5.175061-12.436839-5.175061-5.175061-12.520308-5.175061-8.179935 0-13.438464 6.176686-4.256905 5.008123-4.256905 11.435214 0 6.427092 4.256905 11.435217 5.175061 6.17668 13.438464 6.17668 7.428716 0 12.520308-5.09159 5.175061-5.091591 5.175061-12.520307z"/><path d="m161.59669 78.913089q-5.75935-2.754468-11.68563-2.754468-13.52193 0-17.52843 11.017872-1.50243 4.006498-1.50243 10.767464v33.137083h-27.37774v-77.458973h27.37774v12.687245q4.34037-6.760966 9.34849-9.76584 6.76097-4.006498 16.026-4.006498 2.17018 0 5.342.250406z"/><path d="m221.41816 129.41167q-8.51381 4.2569-17.8623 4.2569-21.20106 0-33.6379-14.35662-10.01624-11.60215-10.01624-26.876928 0-15.358245 10.01624-26.876928 12.43684-14.35662 33.6379-14.35662 9.51543 0 17.8623 4.340374v23.287773q-7.26178-5.091592-14.18968-5.091592-8.17993 0-13.52193 5.258529-5.342 5.258529-5.342 13.438464 0 8.179938 5.342 13.438468 5.342 5.25853 13.52193 5.25853 6.84444 0 14.18968-5.00813z"/><path d="m313.45856 131.08104h-27.37774v-8.59728q-3.92303 4.92466-7.92953 7.17831-7.01137 3.92303-15.94253 3.92303-14.44009 0-25.70836-9.93278-13.43847-11.85255-13.43847-31.384236 0-19.865555 13.77234-31.718113 10.9344-9.431966 25.12409-9.431966 8.2634 0 15.52518 3.505687 4.17343 2.003249 8.59728 6.594029v-7.595654h27.37774zm-26.54306-38.729487q0-7.345247-5.17506-12.436839-5.17506-5.175061-12.5203-5.175061-8.17994 0-13.43847 6.176686-4.2569 5.008123-4.2569 11.435214 0 6.427092 4.2569 11.435217 5.17506 6.17668 13.43847 6.17668 7.42871 0 12.5203-5.09159 5.17506-5.091591 5.17506-12.520307z"/><path d="m408.67076 131.08104h-27.37774v-8.59728q-3.92303 4.92466-7.92953 7.17831-7.01137 3.92303-15.94252 3.92303-14.44009 0-25.70837-9.93278-13.43846-11.85255-13.43846-31.384236 0-19.865555 13.77234-31.718113 10.9344-9.431966 25.12408-9.431966 8.2634 0 15.52518 3.505687 4.17344 2.003249 8.59728 6.594029v-55.5066995h27.37774zm-26.54305-38.729487q0-7.345247-5.17506-12.436839-5.17506-5.175061-12.52031-5.175061-8.17994 0-13.43846 6.176686-4.25691 5.008123-4.25691 11.435214 0 6.427092 4.25691 11.435217 5.17506 6.17668 13.43846 6.17668 7.42872 0 12.52031-5.09159 5.17506-5.091591 5.17506-12.520307z"/><path d="m498.79139 97.359676h-57.59342q0 17.444964 16.86068 17.444964 8.59728 0 13.18806-7.34525h26.45958q-3.17181 10.51706-9.34849 16.2764-11.18481 10.43359-29.96527 10.43359-23.87206 0-35.89155-14.52356-9.01462-10.85093-9.01462-26.45958 0-18.530056 11.26827-30.132208 11.26828-11.602152 31.80159-11.602152 25.29102 0 36.14195 18.363119 6.09322 10.350121 6.09322 24.038991zm-25.54143-15.692119q-2.92141-12.854183-15.60865-12.854183-7.01137 0-11.35175 4.089967-3.42221 3.25528-4.34037 8.764216z"/></g></svg>

<?xml version="1.0" encoding="UTF-8" standalone="no"?><!-- Generator: Gravit.io --><svg xmlns="http://www.w3.org/2000/svg" xmlns:xlink="http://www.w3.org/1999/xlink" style="isolation:isolate" viewBox="0 0 505 155" width="505pt" height="155pt"><defs><clipPath id="_clipPath_RjdRcvneYEHBodOnzZY6fizPqUFn8io2"><rect width="505" height="155"/></clipPath></defs><g clip-path="url(#_clipPath_RjdRcvneYEHBodOnzZY6fizPqUFn8io2)"><path d=" M 95.599 131.081 L 68.221 131.081 L 68.221 122.484 Q 64.298 127.408 60.291 129.662 Q 53.28 133.585 44.349 133.585 Q 29.909 133.585 18.64 123.652 Q 5.202 111.8 5.202 92.268 Q 5.202 72.403 18.974 60.55 Q 29.909 51.118 44.098 51.118 Q 52.362 51.118 59.624 54.624 Q 63.797 56.627 68.221 61.218 L 68.221 53.622 L 95.599 53.622 L 95.599 131.081 Z  M 69.055 92.352 Q 69.055 85.006 63.88 79.915 Q 58.705 74.74 51.36 74.74 Q 43.18 74.74 37.922 80.916 Q 33.665 85.924 33.665 92.352 Q 33.665 98.779 37.922 103.787 Q 43.097 109.963 51.36 109.963 Q 58.789 109.963 63.88 104.872 Q 69.055 99.78 69.055 92.352 Z " fill="rgb(255,255,255)"/><path d=" M 161.597 78.913 Q 155.837 76.159 149.911 76.159 Q 136.389 76.159 132.383 87.176 Q 130.88 91.183 130.88 97.944 L 130.88 131.081 L 103.502 131.081 L 103.502 53.622 L 130.88 53.622 L 130.88 66.309 Q 135.221 59.548 140.229 56.543 Q 146.99 52.537 156.255 52.537 Q 158.425 52.537 161.597 52.787 L 161.597 78.913 Z " fill="rgb(255,255,255)"/><path d=" M 221.418 129.412 Q 212.904 133.669 203.556 133.669 Q 182.355 133.669 169.918 119.312 Q 159.902 107.71 159.902 92.435 Q 159.902 77.077 169.918 65.558 Q 182.355 51.201 203.556 51.201 Q 213.071 51.201 221.418 55.542 L 221.418 78.83 Q 214.156 73.738 207.228 73.738 Q 199.049 73.738 193.707 78.997 Q 188.365 84.255 188.365 92.435 Q 188.365 100.615 193.707 105.873 Q 199.049 111.132 207.228 111.132 Q 214.073 111.132 221.418 106.124 L 221.418 129.412 Z " fill="rgb(255,255,255)"/><path d=" M 313.459 131.081 L 286.081 131.081 L 286.081 122.484 Q 282.158 127.408 278.151 129.662 Q 271.14 133.585 262.209 133.585 Q 247.769 133.585 236.5 123.652 Q 223.062 111.8 223.062 92.268 Q 223.062 72.403 236.834 60.55 Q 247.769 51.118 261.958 51.118 Q 270.222 51.118 277.484 54.624 Q 281.657 56.627 286.081 61.218 L 286.081 53.622 L 313.459 53.622 L 313.459 131.081 Z  M 286.916 92.352 Q 286.916 85.006 281.74 79.915 Q 276.565 74.74 269.22 74.74 Q 261.04 74.74 255.782 80.916 Q 251.525 85.924 251.525 92.352 Q 251.525 98.779 255.782 103.787 Q 260.957 109.963 269.22 109.963 Q 276.649 109.963 281.74 104.872 Q 286.916 99.78 286.916 92.352 Z " fill="rgb(255,255,255)"/><path d=" M 408.671 131.081 L 381.293 131.081 L 381.293 122.484 Q 377.37 127.408 373.363 129.662 Q 366.352 133.585 357.421 133.585 Q 342.981 133.585 331.713 123.652 Q 318.274 111.8 318.274 92.268 Q 318.274 72.403 332.046 60.55 Q 342.981 51.118 357.171 51.118 Q 365.434 51.118 372.696 54.624 Q 376.869 56.627 381.293 61.218 L 381.293 5.711 L 408.671 5.711 L 408.671 131.081 Z  M 382.128 92.352 Q 382.128 85.006 376.953 79.915 Q 371.778 74.74 364.432 74.74 Q 356.252 74.74 350.994 80.916 Q 346.737 85.924 346.737 92.352 Q 346.737 98.779 350.994 103.787 Q 356.169 109.963 364.432 109.963 Q 371.861 109.963 376.953 104.872 Q 382.128 99.78 382.128 92.352 Z " fill="rgb(255,255,255)"/><path d=" M 498.791 97.36 L 441.198 97.36 Q 441.198 114.805 458.059 114.805 Q 466.656 114.805 471.247 107.459 L 497.706 107.459 Q 494.534 117.976 488.358 123.736 Q 477.173 134.169 458.393 134.169 Q 434.52 134.169 422.501 119.646 Q 413.486 108.795 413.486 93.186 Q 413.486 74.656 424.755 63.054 Q 436.023 51.452 456.556 51.452 Q 481.847 51.452 492.698 69.815 Q 498.791 80.165 498.791 93.854 L 498.791 97.36 Z  M 473.25 81.668 Q 470.329 68.813 457.641 68.813 Q 450.63 68.813 446.29 72.903 Q 442.867 76.159 441.949 81.668 L 473.25 81.668 Z " fill="rgb(255,255,255)"/></g></svg>
